X:5
T:John of the Greeny Cheshire Way
B:John of the Greeny Cheshire Way
L:1/8
M:3/2
N: John Offord, Reproduced with permission
O:England
R:Triple Hornpipe
Z:Steve Bliven (bliven@massed.net)
%%TUNEURL: http://www.leeds.ac.uk/music/Info/RRTuneBk/gettune/000002da.html
%%ID:000002da
K:D
P:1
C3 E   DEFD E4    |ef e2 E3 A F2 ED |C3 E DEFD E4      | dc d2 D2 A2F2 ED ||
P:2
d3 f e2 dc BA B/2c/2d/2B/2|dc e2 E3 A F2 ED|d3 f e2 dc BA G/2A/2B/2c/2|dc\
d2 D3 A F2 ED||
P:3
GE G2 FD F2 EC E2 |ef e2 E3 A F2 ED |GE G2 FD F2 EC E2 | dc d2 D3 A F2 ED ||
P:4
afd gec fdB ecA   |ef e2 E3 A F2 ED |afd gec fdB E dc  | dc d2 D3 A F2 ED |]
